!!!OTL: 447f. Kein Hinderniss fuer Liebe.
!!!ARE: Europa, Mitteleuropa, Deutschland, Lahngegend, Nassau
!!!SCT: E0447C
!!!TXL: @@DE
!!!YEM: Copyright 1995, estate of Helmut Schaffrath.
**kern	**text
*ICvox	*
*M6/8	*
*k[f#]	*
*G:	*
!LO:TX:a:t=Lebhaft.	!
!LO:TX:a:t=Aus der Lahngegend.	!
{8d	'Ach
=1	=1
4g	ſchönſtes
8b/	.
4dd	Ka-
8dd	-ro-
=2	=2
4.dd	-lin-
4b}	-chen,
{8b	was
=3	=3
4a	ſtehſt
8ee	du
4dd	hier
8cc	al-
=4	=4
4.b	-lein?
4r	.
8r}	.
=5	=5
{4.g	Ja,
4.ee	ja,
=6	=6
[4.dd	ja!
4dd]}	.
{8dd	ich
=7	=7
8eeL	ſehs
8ddJ	.
8cc	an
8ccL	dei-
8ddJ	.
8ee	-nen
=8	=8
(4dd	Aeu-
8b)	-ge-
4b}	-lein,
{8dd	du
=9	=9
8ddL	trägſt
8eeJ	.
8dd	viel
4dd	Her-
8cc	-ʒe-
=10	=10
[4.b	-leid.'
8b]	.
8r}	.
==	==
!!!AGN: Liebes - Lied
!!!ONB: ESAC (Essen Associative Code) Database: ERK1
!!!AMT: compound duple
!!!AIN: vox
!!!EED: Helmut Schaffrath
!!!EEV: 1.0
!!!GTL: Liebeslieder [Alte (aus dem 13. bis 17. Jahrh.) mit ihrem jungen Nachwuchs]
!!!URL-scan: https://rosdok.uni-rostock.de/mcrviewer/recordIdentifier/rosdok_ppn745177662/iview2/phys_0272.iview2?x=-778.7160746633431&y=244.33335691771936&scale=0.3980252647138593&rotation=0&layout=singlePageLayout
!!!ENC: Anna Maria Matuszewska
!!!EEV: 2024/10/12
*-	*-
